core/assets/icons/entrance.svg

<svg width="24" height="24" viewBox="0 0 24 24" xmlns="http://www.w3.org/2000/svg"><g id="entrance"><path id="Vector" d="M10 11V8L15 12L10 16V13H1V11H10ZM2.458 15H4.582C5.28004 16.7191 6.55371 18.1422 8.18512 19.0259C9.81652 19.9097 11.7043 20.1991 13.5255 19.8447C15.3468 19.4904 16.9883 18.5142 18.1693 17.0832C19.3503 15.6523 19.9975 13.8554 20 12C20.001 10.1427 19.3558 8.34283 18.1749 6.90922C16.994 5.47561 15.3511 4.49756 13.528 4.14281C11.7048 3.78807 9.81505 4.07874 8.18278 4.96498C6.55051 5.85121 5.27747 7.27778 4.582 9H2.458C3.732 4.943 7.522 2 12 2C17.523 2 22 6.477 22 12C22 17.523 17.523 22 12 22C7.522 22 3.732 19.057 2.458 15Z"/></g></svg>

<svg xmlns="http://www.w3.org/2000/svg" width="24" height="24" fill="none"><path fill="#191C22" d="M10 11V8l5 4-5 4v-3H1v-2h9Zm-7.542 4h2.124A8.003 8.003 0 0 0 20 12 8 8 0 0 0 4.582 9H2.458C3.732 4.943 7.522 2 12 2c5.523 0 10 4.477 10 10s-4.477 10-10 10c-4.478 0-8.268-2.943-9.542-7Z"/></svg>
